**kern	**kern	**dynam
*part1	*part1	*part1
*staff2	*staff1	*
*I"Piano	*	*
*clefF4	*clefG2	*
*k[f#c#]	*k[f#c#]	*
=1	=1	=1
2.AAA 2.AA	8r	p
.	8F#L 8A	.
.	8AJ 8d	.
.	8d 8f#	.
.	8r	.
.	8r	.
=	=	=
2.AAA	8r	.
.	8GL 8c#	.
.	8c#J 8e	.
.	8e 8a	.
.	8r	.
.	8r	.
=	=	=
4DD 4AA	8F# 8A 8d 8f#	.
.	8r	.
8d	8a 8ff#	f
.	8qgg/	.
8dL	8aML 8ff#	.
8c#	8a 8ee	.
8dJ	8aJ 8ff#	.
=	=	=
4e	4a 4cc# 4gg	.
8r	8r	.
4g	4a 4cc# 4ee	.
8r	8r	.
=	=	=
4f#	4.a 4.dd 4.aa	.
8r	.	.
*clefG2	*	*
8bL	8ddL 8ddd	>
8a	8dd 8ccc#	.
8gJ	8ddJ 8bb	.
=	=	=
8f#L	8aL 8aa	.
8e	8a 8cc# 8gg	.
8dJ	8aJ 8dd 8ff#	.
*	*^	*
4.A	(4ff#^	4.g 4.cc#	.
.	8ee)	.	.
*	*v	*v	*
*clefF4	*	*
=	=	=
4D 4A	4f# 4dd	] p
8r	8r	.
.	8qb/	.
8F#L	8dL 8a	.
8E#X	8d 8g#X	.
8F#J	8dJ 8a	.
=:|!	=:|!	=:|!
2.D; 2.A	2.f#; 2.dd	.
==	==	==
*-	*-	*-
!!!system-decoration: {(s1,s2)}
